X:1
T:Title
%%score 1 { ( 2 4 ) | 3 }
L:1/8
Q:1/4=102
M:4/4
K:F
V:1 treble nm="Grand Piano, Soprano"
V:2 bass nm="Choir Pad, Peace, Be Still (Deveneau)"
V:4 bass 
V:3 bass 
V:1
 [CF]2 [CF]2 F[FG][FA][GB] | [Ac]2 [Bd]2 [Ac]2 [FA]2 | [EB][EB][GB][EB] [EG]2 [GB]2 | [FA]6 z2 | %4
w: By~John~McPherson * * * * *||||
 F2 F2 F[FG][FA][GB] | [Ac]2 [Bd]2 [Ac]2 [FA]2 | [GB][EG][CE]C [CF]2 [CG]2 | [CF]6 c>A | %8
w: ||||
 B2 E2 E2 z2 | z2 [FA]2 [FA]2 [EG][FA] | [GB][GB][GB][GB] [EG][FA] [GB]2 | [FA]6 c>A | %12
w: ||||
 B2 E2 E2 z2 | z2 [FA]2 [FA]2 z [Fc] | [Fd][Fc][FA][CF] [FA]2 [EG]2 | F2 DD C4- | C4 z4 |] %17
w: |||||
V:2
 A,2 A,2 A,B,C[K:treble]C | F2 F2 F2 C2 | CCCC C2 C2 | C6 z2 | A,2 A,2 A,B,C[K:treble]C | %5
 F2 F2 F2 C2 | C[K:bass]B,G,B, A,2 B,2 | A,6 z2 | z2 G,2 G,2 D,>E, | z2[K:treble] C2 C2 CC | %10
 CCCC C2 C2 | C6 z2 | z2[K:bass] G,2 G,2 D,>E, | z2 C2 C2 z A, | B,A,[K:treble]CC C2 CB, | %15
 A,2 B,B, A,4- | A,4 z4 |] %17
V:3
 F,2 F,2 F,F,F,F, | F,2 F,2 F,2 F,2 | G,G,E,C, C,2 C,2 | F,6 z2 | F,2 F,2 F,F,F,F, | %5
 F,2 F,2 F,2 F,2 | C,C,C,C, C,2 C,2 | F,6 z2 | z2 C,2 C,2 z2 | z4 z2 C,C, | C,C,C,C, C,2 C,2 | %11
 F,2 C,A,, F,,2 z2 | z2 C,2 C,2 z2 | z4 z2 z F, | F,F,F,A,, C,2 C,2 | F,8- | F,4 z4 |] %17
V:4
 x7[K:treble] x | x8 | x8 | x8 | x7[K:treble] x | x8 | x[K:bass] x7 | x8 | x8 | F,6[K:treble] z2 | %10
 x8 | x8 | x2[K:bass] x6 | F,4 z4 | x2[K:treble] x6 | x8 | x8 |] %17

